images_elementary_svg/cmd/sl/sc_bold.svg

<svg viewBox="0 0 16 16" xmlns="http://www.w3.org/2000/svg" xmlns:xlink="http://www.w3.org/1999/xlink"><radialGradient id="a" cx="6" cy="3.41416" gradientTransform="matrix(.00000011 4.5623183 -3.2204598 .00000008 16.995163 -27.37391)" gradientUnits="userSpaceOnUse" r="3.726176"><stop offset="0" stop-color="#737373"/><stop offset=".262" stop-color="#636363"/><stop offset=".705" stop-color="#4b4b4b"/><stop offset="1" stop-color="#3f3f3f"/></radialGradient>

/&amp;amp;gt;<path d="m13.649989 14.5h-3.130344l-2.9880545-5.406957-1.0315905.7647998v4.6421572h-2.9999999v-13.0015973h2.9999999v6.2606871l1.0849486-1.8408554 2.9702684-4.4198317h3.0592l-4.1530408 5.8605011z" fill="url(#a)" stroke="#000" stroke-opacity=".6"/></svg>

<?xml version="1.0" encoding="UTF-8" standalone="no"?>
<svg
   xmlns:dc="http://purl.org/dc/elements/1.1/"
   xmlns:cc="http://creativecommons.org/ns#"
   xmlns:rdf="http://www.w3.org/1999/02/22-rdf-syntax-ns#"
   xmlns:svg="http://www.w3.org/2000/svg"
   xmlns="http://www.w3.org/2000/svg"
   xmlns:xlink="http://www.w3.org/1999/xlink"
   xmlns:sodipodi="http://sodipodi.sourceforge.net/DTD/sodipodi-0.dtd"
   xmlns:inkscape="http://www.inkscape.org/namespaces/inkscape"
   viewBox="0 0 16 16"
   version="1.1"
   id="svg13"
   sodipodi:docname="sc_bold.svg"
   inkscape:version="0.92.4 (unknown)"
   inkscape:export-filename="/home/rizmut/Dokumen/Rizmut/Github/libreoffice-style-elementary/images_elementary/cmd/sl/sc_bold.png"
   inkscape:export-xdpi="96"
   inkscape:export-ydpi="96"><metadata
   id="metadata19">
  <rdf:RDF>
    <cc:Work
       rdf:about="">
      <dc:format>image/svg+xml</dc:format>
      <dc:type
         rdf:resource="http://purl.org/dc/dcmitype/StillImage" />
      <dc:title />
    </cc:Work>
  </rdf:RDF>
</metadata>
<defs
   id="defs17">
  <radialGradient
     inkscape:collect="always"
     xlink:href="#a"
     id="radialGradient840"
     cx="6"
     cy="3.4141598"
     fx="6"
     fy="3.4141598"
     r="3.726176"
     gradientTransform="matrix(1.0631973e-7,4.5623183,-3.2204598,7.5049214e-8,16.995163,-27.37391)"
     gradientUnits="userSpaceOnUse" />
</defs>
<sodipodi:namedview
   pagecolor="#ffffff"
   bordercolor="#666666"
   borderopacity="1"
   objecttolerance="10"
   gridtolerance="10"
   guidetolerance="10"
   inkscape:pageopacity="0"
   inkscape:pageshadow="2"
   inkscape:window-width="1366"
   inkscape:window-height="714"
   id="namedview15"
   showgrid="true"
   inkscape:zoom="22.627417"
   inkscape:cx="8.1594286"
   inkscape:cy="4.5852715"
   inkscape:window-x="0"
   inkscape:window-y="28"
   inkscape:window-maximized="1"
   inkscape:current-layer="svg13">
  <inkscape:grid
     type="xygrid"
     id="grid826" />
</sodipodi:namedview>
<radialGradient
   id="a"
   cx="11.375"
   cy="1.125"
   gradientTransform="matrix(-2.81612 0 0 -3.9403 43.408 3.466)"
   gradientUnits="userSpaceOnUse"
   r="5.154">
  <stop
     offset="0"
     stop-color="#737373"
     id="stop2" />
  <stop
     offset=".262"
     stop-color="#636363"
     id="stop4" />
  <stop
     offset=".705"
     stop-color="#4b4b4b"
     id="stop6" />
  <stop
     offset="1"
     stop-color="#3f3f3f"
     id="stop8" />
</radialGradient>

/&amp;gt;<g
   aria-label="K"
   style="font-style:normal;font-weight:normal;font-size:18.21290779px;line-height:1.25;font-family:sans-serif;letter-spacing:0px;word-spacing:0px;fill:url(#radialGradient840);fill-opacity:1;stroke:#000000;stroke-width:1;stroke-opacity:0.60000002;stroke-miterlimit:4;stroke-dasharray:none"
   id="text830">
  <path
     d="M 13.649989,14.5 H 10.519645 L 7.5315905,9.093043 6.5,9.8578428 V 14.5 H 3.5000001 V 1.4984027 H 6.5 V 7.7590898 L 7.5849486,5.9182344 10.555217,1.4984027 h 3.0592 L 9.4613762,7.3589038 Z"
     style="font-style:normal;font-variant:normal;font-weight:bold;font-stretch:normal;font-family:'Droid Sans';-inkscape-font-specification:'Droid Sans Bold';fill:url(#radialGradient840);fill-opacity:1;stroke:#000000;stroke-width:1;stroke-miterlimit:4;stroke-dasharray:none;stroke-opacity:0.6"
     id="path828"
     inkscape:connector-curvature="0"
     sodipodi:nodetypes="cccccccccccccc" />
</g>
</svg>
